X: 3
T: Favourite Polka
M: C
L: 1/8
G: Angigonish Polkas
K: D
g|"D"fgaba2d2|"A7"d2c2cBc>a|a3ccBc>a|"D"a2d2dcdf|fgaba2d2|"A7"d2c2cBca|
a3bagfe|"D"d6:|"(D7)"c|"G"Bd^cde2B2|"D7"d2c2cBc>d|"Am"e3c"A7"f3^c
|e2d2"D7"d^cd2|"G"B2g2gfg2|"Am"A2e2"A7"e^de2|"D7"defe dcBA|"G"G6:|
%%newpage
%%textfont * 14
%%begintext justify
%%32 Bar Jigs
%%endtext
